!!!COM: Victor Masse/
!!!TXO: Francais
!!!OTL: Eho!
!!!LYR: (Poe/sie Populaire)
!!!ONM: No. 7
!!!ENC: Jacob Pegg
!!!YOR: Romantic French Song 1830-1870 -David Tunley, ed.,
!!!YOR: New York: Garland Publishing, Inc., 1995, Vol. 4
!!!ODT: 1874/
!!NB: Vocal melody and text only encoded.
!!NB: First instance of melodic material only encoded.
**kern	**silbe
*clef G2	*
*k[b-e-a-]	*
*M6/8	*
=9	=9
{4cc	{Tant
8dd	qu'aux
8ee-	bords
8dd	des
8cc	fon-
=10	=10
8.a-	-tai-
16b-	|
16cc	|
16b-	|
8.a-	|
16b-	|
16cc	|
16a-	|
=11	=11
4g}	-nes}
8r	.
{8f	{Ou\
8g	|
8a-	|
=12	=12
8g	dans
8f	|
8e-	les
16d	frais
16e-	|
8f	|
8g	ruis-
=13	=13
(8g	-seaux
[4c)	|
4c]}	|}
8r	.
=14	=14
{4f	{Les
8g	mou-
8a-	-tons
8b-	baign'-
8cc	-leur
=15	=15
8.b-	lai-
16a-	|
16g	|
16a-	|
8.b-	|
16cc	|
16dd	|
16ee-	|
=16	=16
4b-}	-nes}
8r	.
{8a-	{Et
8g	|
8f	|
=17	=17
8e-	dan-
8d	|
8c	-sent
4e-	au
8f	pre/-
=18	=18
8g	-au,
8r	.
8een	E-
[4.cc	-ho!
=19	=19
8cc]}	|}
{8an	{Les
8an	ag-
8an	-neaux
(ccq	vont
8bn)	|
8an	aux
=20	=20
(8an	plai-
8g)	-nes,
8ee-	E-
[4.cc	-ho!
=21	=21
8cc]}	|}
{8a-	{Et
8a-	les
8a-	loups
(ccq	sont
8b-)	|
8a-	aux
=22	=22
4g}	bois,}
8r	.
{8f	{Et
8g	|
8a-	les
=23	=23
8g	loups
8f	|
8e-	|
(8f	sont
16gq	|
16fq	|
8e-)	|
8d	aux
=24	=24
(4c	bois,
8cc	E-
[4.g)	-ho!
=25	=25
8g]}	|}
{8c	{Et
8c	les
8c	loups
8d	sont
8e-	aux
=26	=26
8c	bois,
8r	.
8gg	E-
[4.ee-	ho!
=27	=27
2.ee-_	|
=28	=28
4ee-]}	|}
8r;	.
{8d	{Et
8f	|
8a-	les
=29	=29
8g	loups
8cc	|
8ee-	|
8c	sont
8.d	|
16e-	aux
=30	=30
4c}	bois.}
8r	.
4r	.
8r	.
!!verse 2 mm 31-52; verse 3 mm. 52-68
=69	=69
{8a-	{T'es
8b-	mon
8cc	ag-
4ee-	-neau
16r	.
16cc	ma
=70	=70
(4.e-	rei-
4b-)}	-ne}
8r	.
=71	=71
{4a-	{Les
8g	grand's
4f	vill's
16g	c'est
16a-	les
=72	=72
[4.dd-	bois
4dd-]}	|}
8r	.
=73	=73
{4b-	{Par
8cc	ain-
8b-	-si
8.g	Ma-
16f	-de-
=74	=74
(4.f	-lei-
4e-)}	-ne}
8r	.
=75	=75
{4b-	{T'en
8cc	va
8dd-	pas
8.b-	loin
16ff	de
=76	=76
(4.ff	moi.
4b-)}	|}
8r	.
=77	=77
{4a-	{T'en
8b-	va
8cc	pas
8.a-	loin
16ee-	de
=78	=78
(4.ee-	moi.
4a-)}	|}
8r	.
=79	=79
4r	.
8r	.
{4cc	{Ma-
8a-	-de-
=80	=80
(4.g	-lei-
4.f)}	-ne}
=81	=81
8r	.
{8b-	{T'en
8b-	vas
(16b-q	pas
16ccq	|
8b-)	|
8.a-	loin
16b-	de
=82	=82
4cc}	moi.}
8r	.
4.r	.
!!83-end recaps existing material
*-	*-
